!!!!SEGMENT: pl-kk--kk-i-119_anonim--aeterna-christi-munera.krn
!!!cenid: 16xx:1346
!!!COM: Anonim
!!!COM-rismID: pe30004985
!!!CDT:
!!!CNT:
!!!OTL: Aeterna Christi Munera
!!!PDT:
!!!AGN: Sacred
!!!YEC: Copyright 2022 Narodowy Instytut Fryderyka Chopina (https://polishscores.org)
!!!YEM: License CC-BY-4.0 (https://creativecommons.org/licenses/by/4.0)
!!!SMS-siglum: PL-Kk
!!!SMS-shelfmark: Kk.I.119
!!!SMS-shelfwork: W
!!!SMS-variant:
!!!SMS-altvar:
!!!NIFC-rismSourceID: 1001153672
!!!NIFC-rismChildID: 1001153672
!!!NIFC-islandoraID: pl-kk:3433
!!!URL-pdf-islandora: https://repozytorium.nifc.pl/islandora/object/pl-kk%3A3433/datastream/PDF/view
!!!URL-scan: https://polish.musicsources.pl/pl/lokalizacje/galeria/rekopisy/5752 @EN{Scan on Polish Music Sources Website} @PL{Skany w portalu Dziedzictwo Muzyki Polskiej w otwartym dostępie}
!!!IIIF:
!!!ONB-nifc:
!!!AIN: 1 alto 2 empty 1 tenor 1 vox
!!!key:
**kern	**text	**text	**kern	**text	**kern	**text	**dynam	**kern	**text	**kern	**text
*part5	*	*	*part4	*	*part3	*	*	*part2	*	*part1	*
*staff5	*	*	*staff4	*	*staff3	*	*	*staff2	*	*staff1	*
*>[A,B,B,C]	*>[A,B,B,C]	*>[A,B,B,C]	*>[A,B,B,C]	*>[A,B,B,C]	*>[A,B,B,C]	*>[A,B,B,C]	*>[A,B,B,C]	*>[A,B,B,C]	*>[A,B,B,C]	*>[A,B,B,C]	*>[A,B,B,C]
*>A	*>A	*>A	*>A	*>A	*>A	*>A	*>A	*>A	*>A	*>A	*>A
*Iempty	*	*	*Iempty	*	*Itenor	*	*	*Ialto	*	*Ivox	*
*I"Baſso Ripieno	*	*	*I"Baſso.	*	*I"Tenore.	*	*	*I"Alto.	*	*I"Canto.	*
*I'B rip	*	*	*I'B	*	*I'T	*	*	*I'A	*	*I'S	*
*clefF4	*	*	*clefF4	*	*clefC4	*	*	*clefC3	*	*clefC1	*
*k[f#]	*	*	*k[f#]	*	*k[f#]	*	*	*k[f#]	*	*k[f#]	*
*e:	*	*	*e:	*	*e:	*	*	*e:	*	*e:	*
*M3/2	*	*	*M3/2	*	*M3/2	*	*	*M3/2	*	*M3/2	*
=1	=1	=1	=1	=1	=1	=1	=1	=1	=1	=1	=1
*2\right	*	*	*2\right	*	*	*	*	*2\right	*	*2\right	*
!LO:TX:t=P:problem=przy kluczu FF# F#	!	!	!	!	!LO:TX:t=P:problem=przy kluczu f# F#	!	!	!	!	!	!
2E\	1 AE-	3. De-	2E\	AE-	2G/	AE-	.	2e\	AE-	2b\	AE-
2D#X/	-ter-	-vo-	2D#X/	-ter-	2F#X/	-ter-	.	2f#X\	-ter-	2b\	ter-
2D#/	-na	-ta	2D#/	-na	2F#/	-na	.	2f#\	-na	2b\	-na
=2	=2	=2	=2	=2	=2	=2	=2	=2	=2	=2	=2
4E/	Chri-	San-	(4E/	Chri-	1G	Chri-	.	(2.e\	Chri-	2b\	Chri-
4D/	.	.	4D/	.	.	.	.	.	.	.	.
4Cn/	.	.	4Cn/	.	.	.	.	.	.	1ccn	-sti
4BB/	.	.	4BB/)	.	.	.	.	4d\	.	.	.
2AA/	-sti	.	2AA/	.	2A/	.	.	4cn\	.	.	.
.	.	.	.	.	.	.	.	4d\)	.	.	.
=3	=3	=3	=3	=3	=3	=3	=3	=3	=3	=3	=3
(2C/	mu-	-cto-	2C/	-sti	2G/	-sti	.	2e,<\	-sti	(2g/	Mu-
2AA/)	.	.	2AA/	mu-	2A/	mu-	.	2.e\	mu-	2cc\)	.
4BB/	.	-rum	4BB/	.	2F#/	-ne-	.	.	.	4b\	.
4BB/	-ne-	Fi-	4BB/	-ne-	.	.	.	4d#X\	-ne-	4b\	-ne-
=4	=4	=4	=4	=4	=4	=4	=4	=4	=4	=4	=4
1.E	-ra;	-des	1.E,<	-ra	1.G#X,<	-ra	.	1.e,<	-ra	1.b,<	-ra,
=5	=5	=5	=5	=5	=5	=5	=5	=5	=5	=5	=5
2E\	A-	In-	2E\	A-	2Gn/	A-	.	(4e\	A-	2b\	A-
.	.	.	.	.	.	.	.	4f#\)	.	.	.
2E\	-po-	-vi-	2E\	-po-	2G/	-po-	.	(4gn\	-po-	2b\	-po-
.	.	.	.	.	.	.	.	4f#\	.	.	.
2E\	-sto-	-cta	2E\	-sto-	2G/	-sto-	.	4e\	.	2b\	-ſto-
.	.	.	.	.	.	.	.	4d\)	.	.	.
=6	=6	=6	=6	=6	=6	=6	=6	=6	=6	=6	=6
(4F#\	-lo-	Spes	(4F#\	-lo-	4F#X/	-lo-	.	2.c#X/	-sto-	1a#X	-lo-
4E\	.	.	4E\	.	8G/L	.	.	.	.	.	.
.	.	.	.	.	8A/J	.	.	.	.	.	.
4D\	.	.	4D/	.	4B\	.	.	.	.	.	.
!LO:SIC:v:s=4C#/)	!	!	!LO:SIC:v:s=4C#/)	!	!	!	!	!	!	!	!
4C/)	.	.	4C/)	.	4c\	.	.	8d\L	.	.	.
.	.	.	.	.	.	.	.	8e\J	.	.	.
*	*	*	*	*	*2\right	*	*	*	*	*	*
2BB/	-rum	cre-	2BB,</	-rum	2d\	.	.	2f#\	-lo-	[<2b\	-rum
=7	=7	=7	=7	=7	=7	=7	=7	=7	=7	=7	=7
2G\	glo-	-den-	2G\	glo-	2d\	-rum	.	2g,<\	-rum	2b\]	.
2E\	.	.	2E\	.	2.c#X\	glo-	.	2g\	glo-	2.b\	glo-
4F#\	.	.	4F#\	.	.	.	.	4f#\	.	.	.
4F#\	-ri-	-ti-	4F#\	-ri-	4c#\	-ri-	.	4f#\	-ri-	4a#X\	-ri-
=8	=8	=8	=8	=8	=8	=8	=8	=8	=8	=8	=8
*	*	*	*	*	*	*	*	*custos:gn	*	*custos:b	*
1.BB	-am	-um	1.BB	-am	1.d#X	-am	.	1.f#,<	-am	1.b	-am
!	!	!	!LO:LB:g=original	!	!LO:LB:g=original	!	!	!LO:LB:g=original	!	!LO:LB:g=original	!
=9	=9	=9	=9	=9	=9	=9	=9	=9	=9	=9	=9
2G\	Pal-	per-	2G\	Pal-	2dn\	pal-	.	2g\	Pal-	2b\	Pal-
2F#\	-mas	-fe-	2F#\	-mas	2d\	-mas	.	2a\	-mas	2an\	-mas
2F#\	et	-cta	2F#\	et	4d\	et	.	2a\	et	2a\	et
.	.	.	.	.	4c\	.	.	.	.	.	.
!LO:LB:g=original	!	!	!	!	!	!	!	!	!	!	!
=10	=10	=10	=10	=10	=10	=10	=10	=10	=10	=10	=10
(4G\	hy-	Chri-	(4G\	hy-	(2.B\	hy-	.	(2.g\	hy-	(4b\	hy-
4F#\	.	.	4F#\	.	.	.	.	.	.	4a\	.
4E\	.	.	4E\	.	.	.	.	.	.	4g\	.
4D\)	.	.	4D\)	.	8c\L	.	.	4f#\	.	8a\L	.
.	.	.	.	.	8d\J)	.	.	.	.	8b\J)	.
2Cn/	.	-sti	2Cn/	.	2e\	.	.	4e\)	.	2ccn\	.
.	.	.	.	.	.	.	.	4f#\	.	.	.
=11	=11	=11	=11	=11	=11	=11	=11	=11	=11	=11	=11
2BB/	-mnos	Ca-	2BB/	-mnos	2d\	-mnos	.	2g,<\	-mnos	2dd\	-mnos
2C/	de-	.	2C/	de-	2e\	de-	.	2.g\	de-	2ccn\	de-
4D/	.	.	4D/	.	2d\	-bi-	.	.	.	2a\	-bi-
4D/	-bi-	-ri-	4D/	-bi-	.	.	.	4f#\	-bi-	.	.
=12	=12	=12	=12	=12	=12	=12	=12	=12	=12	=12	=12
1.GG	-tos,	-tas	1.GG	-tos,	1.d	-tos	.	1.g,<	-tos,	1.b,<	-tos,
=13	=13	=13	=13	=13	=13	=13	=13	=13	=13	=13	=13
2E\	lae-	mun-	2E\	lae-	2e\	lae-	.	2g\	lae-	2b\	lae-
2D#X/	-tis	-di	2D#X\	-tis	2B\	-tis	.	2f#X\	-tis	2b\	-tis
2D#/	ca-	Ty-	2D#\	ca-	2B\	se-	.	2f#\	ca-	2b\	ca-
=14	=14	=14	=14	=14	=14	=14	=14	=14	=14	=14	=14
4E\	-na-	-ran-	(<4E\	-na-	1G	-qua-	.	(2.e\	-na-	1b	-na-
4D\	.	.	4D\	.	.	.	.	.	.	.	.
4C/	.	.	4C/	.	.	.	.	.	.	.	.
4BB/	.	.	4BB/)	.	.	.	.	4d\	.	.	.
2AA/	.	-num	2AA/	.	2A/	.	.	4cn\	.	[<2ccn\	-m(us)
.	.	.	.	.	.	.	.	4d\)	.	.	.
=15	=15	=15	=15	=15	=15	=15	=15	=15	=15	=15	=15
2C/	-m(us)	con-	2C/	-mus	2G,</	-mur	.	2e,<\	-mus	2cc\]	.
2AA/	men-	.	2AA/	men-	2A/	vo-	.	2.e\	men-	2cc\	men-
4BB/	.	.	4BB/	.	2F#/	-ci-	.	.	.	2b\	-ti-
4BB/	-ti-	-te-	4BB/	-ti-	.	.	.	4d#X\	-ti-	.	.
=16	=16	=16	=16	=16	=16	=16	=16	=16	=16	=16	=16
1.E	-bus.	-rit	1.El;	-bus.	1.G#Xl;	-bus.	.	1.el;	-bus.	1.bl;	-bus.
!	!	!	!LO:LB:g=original	!	!LO:LB:g=original	!	!	!LO:LB:g=original	!	!	!
=17||	=17||	=17||	=17||	=17||	=17||	=17||	=17||	=17||	=17||	=17||	=17||
*M3/2	*	*	*M3/2	*	*M3/2	*	*	*M3/2	*	*M3/2	*
2G\	2. Ec-	4 In	2G\	Ec-	2B\	Ec-	.	2g\	Ec-	2dd\	Ec-
2A\	-cle-	his	2A\	-cle-	2A/	-cle-	.	2g\	-cle-	2ccn\	-cle-
2A\	-si-	Pa-	2A\	-si-	2A/	-si-	.	2f#\	-si-	2cc\	-si-
=18	=18	=18	=18	=18	=18	=18	=18	=18	=18	=18	=18
4B\	-a-	-ter-	(4B\	-a-	2.d\	-a-	.	1f#	-a-	(2.b\	-a-
4A\	.	.	4A\	.	.	.	.	.	.	.	.
4Gn\	.	.	4Gn\	.	.	.	.	.	.	.	.
4F#\	.	.	4F#\	.	4A/	.	.	.	.	4cc\)	.
4E\	.	.	4E\	.	2B\	.	.	[<2g\	-rum	2dd\	-rum
4D\	.	.	4D\)	.	.	.	.	.	.	.	.
!	!	!	!	!	!	!	!	!	!	!LO:LB:g=original	!
=19	=19	=19	=19	=19	=19	=19	=19	=19	=19	=19	=19
!	!	!	!	!	!	!	!	!	!	!LO:TX:t=P:problem=oznaczenie metryczne 3/2	!
2C/	-rum	-na	2Cn/	-rum	2A,</	-rum	.	2g\]	.	2ee\	Prin-
2.D/	Prin-	glo-	2.D\	Prin-	2.A/	Prin-	.	2.g\	Prin-	2.dd\	.
4D/	-ci-	-ri-	4D\	-ci-	4A/	-ci-	.	4f#\	-ci-	4dd\	-ci-
!LO:LB:g=original	!	!	!	!	!	!	!	!	!	!	!
=20	=20	=20	=20	=20	=20	=20	=20	=20	=20	=20	=20
1.GG,<	-pes,	-a.	1.GG,<	-pes,	1.B,<	-pes,	.	1.g,<	-pes,	1.dd,<	-pes,
=21	=21	=21	=21	=21	=21	=21	=21	=21	=21	=21	=21
2D\	bel-	in	2D\	Bel-	2A/	bel-	.	2f#\	bel-	2dd\	bel-
2E\	-li	his	2E\	-li	2Gn/	-li	.	2e\	-li	2dd\	-li
2E\	tri-	tri-	2E\	tri-	2G/	tri-	.	2e\	tri-	2cc#X\	tri-
=22	=22	=2	=22	=22	=22	=22	=22	=22	=22	=22	=22
4F#\	-um-	-um-	(4F#X\	-um-	1.A	-um-	.	(2.a\	-um-	1cc#X	-um-
4E\	.	.	4E\	.	.	.	.	.	.	.	.
4D\	.	.	4D\	.	.	.	.	.	.	.	.
!LO:SIC:v:s=4C#/	!	!	!LO:SIC:v:s=4C#\	!	!	!	!	!	!	!	!
4C/	.	.	4C\	.	.	.	.	4e\)	.	.	.
4BB/	.	.	4BB/	.	.	.	.	2f#\	-pha-	[<2dd\	-pha-
!LO:N:vis=4	!	!	!	!	!	!	!	!	!	!	!
8AA/	.	.	4AA/)	.	.	.	.	.	.	.	.
!LO:N:vis=4	!	!	!	!	!	!	!	!	!	!	!
!LO:TX:t=P:problem=zbędny dźwięk	!	!	!	!	!	!	!	!	!	!	!
8GG/	.	.	.	.	.	.	.	.	.	.	.
=23	=23	=23	=23	=23	=23	=23	=23	=23	=23	=23	=23
2GG/	pha-	-phat	2GG/	pha-	2B\	-pha-	.	2e,<\	-les	2dd\]	.
2.AA/	-les	Fi-	2.AA/	-les	2.A\	-les	.	2.e\	Du-	2.dd\	-les
4AA/	Du-	-li-	4AA/	Du-	4A\	du-	.	4e\	.	4cc#X\	Du-
=24	=24	=24	=24	=24	=24	=24	=24	=24	=24	=24	=24
1.D	-ces.	-(us).	1.D	-ces:	1.A	-ces	.	1.f#	-ces	1.dd,<	-ces:
=25||	=25||	=25||	=25||	=25||	=25||	=25||	=25||	=25||	=25||	=25||	=25||
!LO:TX:b:t=9	!	!	!LO:TX:a:t=9	!	!	!	!LO:DY:a:t=For.	!	!	!	!
00.r	.	.	00.r	.	2d\	Cae-	f	2f#\	Cae-	2a\	Cae-
.	.	.	.	.	2G/	-le-	.	2d\	-le-	2b\	-le-
.	.	.	.	.	2d\	-stis	.	2f#\	-stis	2dd\	-stis
=26	=26	=26	=26	=26	=26	=26	=26	=26	=26	=26	=26
.	.	.	.	.	(4e\	au-	.	1g	au-	2b\	au-
.	.	.	.	.	4d\	.	.	.	.	.	.
.	.	.	.	.	4cn\	.	.	.	.	[<1ccn	-lae
.	.	.	.	.	4B\	.	.	.	.	.	.
.	.	.	.	.	4A\	.	.	[<2a\	-lae	.	.
.	.	.	.	.	4G\)	.	.	.	.	.	.
!	!	!	!	!	!LO:LB:g=original	!	!	!LO:LB:g=original	!	!	!
=27	=27	=27	=27	=27	=27	=27	=27	=27	=27	=27	=27
!	!	!	!	!	!	!	!	!LO:TX:t=P:problem=brak zakończenia ligatury	!	!	!
.	.	.	.	.	1F#	.	.	1a]	.	1cc]	.
.	.	.	.	.	2G/	-lae	.	[<2g\	Mi-	2b\	.
=28	=28	=28	=28	=28	=28	=28	=28	=28	=28	=28	=28
.	.	.	.	.	2cn\	mi-	.	2g\]	.	1a	mi-
.	.	.	.	.	2d\	-li-	.	2g\	.	.	.
.	.	.	.	.	2D/	.	.	2f#X\	-li-	2a\	-li-
=29	=29	=29	=29	=29	=29	=29	=29	=29	=29	=29	=29
*	*	*	*	*	*	*	*	*	*	*custos:g	*
00.r	.	.	00.r	.	1.G,<	-tes,	.	1.g,<	-tes	1.b,<	-tes,
!	!	!	!	!	!	!	!	!	!	!LO:LB:g=original	!
=30	=30	=30	=30	=30	=30	=30	=30	=30	=30	=30	=30
.	.	.	.	.	2B\	et	.	2d\	et	2g/	et
.	.	.	.	.	2cn\	ve-	.	2e\	ve-	2g/	ve-
.	.	.	.	.	2c\	-ra	.	2e\	-ra	2g/	-ra
=31	=31	=31	=31	=31	=31	=31	=31	=31	=31	=31	=31
.	.	.	.	.	(1A	mun-	.	1e	mun-	1f#	mun-
.	.	.	.	.	4B\	.	.	2d#X\	-di	2f#/	-di
.	.	.	.	.	4A\)	.	.	.	.	.	.
=32	=32	=32	=32	=32	=32	=32	=32	=32	=32	=32	=32
.	.	.	.	.	4G/	-di	.	1e	Lu-	2g/	.
.	.	.	.	.	4A/	.	.	.	.	.	.
.	.	.	.	.	2.B\	lu-	.	.	.	2.f#/	Lu-
.	.	.	.	.	.	.	.	2d#X\	-mi-	.	.
.	.	.	.	.	4BB/	-mi-	.	.	.	4f#/	-mi-
=33	=33	=33	=33	=33	=33	=33	=33	=33	=33	=33	=33
1.r	.	.	1.r	.	1.E	-na	.	1.e,<	-na	1.g#X,<	-na.
!	!	!	!LO:LB:g=original	!	!	!	!	!	!	!	!
=34||	=34||	=34||	=34||	=34||	=34||	=34||	=34||	=34||	=34||	=34||	=34||
2G\	Cae-	In	2G\	Cae-	2G/	Cae-	.	2d\	cae-	2b\	Cae-
2C/	-le-	his	2Cn/	-le-	2G/	-le-	.	2e\	-le-	2g\	-le-
2G\	-stis	vo-	2G\	-stis	2G/	-stis	.	2d\	-ſtis	2b\	-stis
=35	=35	=35	=35	=35	=35	=35	=35	=35	=35	=35	=35
(4A\	au-	-lun-	(4A\	Au-	(<2E/	au-	.	2cn/	au-	2a\	au-
4G\	.	.	4G\	.	.	.	.	.	.	.	.
4Fn\	.	.	4Fn\	.	1A)	.	.	[<1fn	-lae	1ccn,<	-lae
4E\	.	.	4E\	.	.	.	.	.	.	.	.
4D/	.	.	4D/	.	.	.	.	.	.	.	.
4C/)	.	.	4C/)	.	.	.	.	.	.	.	.
=36	=36	=36	=36	=36	=36	=36	=36	=36	=36	=36	=36
1BB	.	.	1BB	.	1G	.	.	1f]	.	1dd	mi-
2C/	-lae	-tas	2C/	-lae	2G/	-lae	.	2e\	.	[<2ccn\	.
=37	=37	=37	=37	=37	=37	=37	=37	=37	=37	=37	=37
2Fn\	mi-	Spi-	2Fn\	mi-	2A/	mi-	.	1d	mi-	2cc\]	.
2G\	.	.	2G\	.	2G/	.	.	.	.	2cc\	.
2GG/	-li-	-ri-	2GG/	-li-	2G/	-li-	.	2d\	-li-	2b\	-li-
=38	=38	=38	=38	=38	=38	=38	=38	=38-	=38	=38	=38
1.C,<	-tes,	-tûs	1.C	-tes,	1.G	-tes,	.	1.e	-tes	1.cc,<	-tes,
!	!	!	!	!	!LO:LB:g=original	!	!	!LO:LB:g=original	!	!	!
=39	=39	=39	=39	=39	=39	=39	=39	=39	=39	=39	=39
2E\	et	cae-	2E\	et	2G/	et	.	2g\	et	2cc\	et
2Fn\	ve-	lu(m)	2Fn\	ve-	2A/	ve-	.	2fn\	ve-	2cc\	ve-
2F\	-ra	re-	2F\	-ra	2A/	-ra	.	2f\	-ra	2cc\	-ra
!LO:LB:g=original	!	!	!	!	!	!	!	!	!	!	!
=40	=40	=40	=40	=40	=40	=40	=40	=40	=40	=40	=40
1D	mun-	ple-	1D	mun-	1A	mun-	.	1fn	mun-	1b	mun-
4E\	.	-t(ur)	4E\	.	2G/	-di	.	2e\	-di	2b\	-di
4D\	.	.	4D\	.	.	.	.	.	.	.	.
=41	=41	=41	=41	=41	=41	=41	=41	=41	=41	=41	=41
4C/	-di	gau-	4C/	-di	2cn\	lu-	.	(4e\	Lu-	1a	lu-
4D/	.	.	4D/	.	.	.	.	4fn\)	.	.	.
2.E\	Lu-	.	2.E\	Lu-	2.B\	.	.	2.e\	.	.	.
.	.	.	.	.	.	.	.	.	.	2g#X/	-mi-
4E\	-mi-	-di-	4E\	-mi-	4B\	-mi-	.	4e\	-mi-	.	.
=42	=42	=42	=42	=42	=42	=42	=42	=42	=42	=42-	=42
*	*	*	*custos:BBn	*	*	*	*	*	*	*	*
1.AA	-na.	-o	1.AA	-na.	1.A	-na	.	1.e,<	-na	1.a	-na
!	!	!	!LO:LB:g=original	!	!	!	!	!	!	!LO:LB:g=original	!
=43	=43	=43	=43	=43	=43	=43	=43	=43	=43	=43	=43
2BB/	et	cae-	2BB/	et	2F#X/	et	.	2d#X\	et	2gn/	et
2BB/	ve-	-l(um)	2BB/	ve-	2F#/	ve-	.	2d#\	ve-	2g/	ve-
2BB/	-ra	re-	2BB/	-ra	2F#/	-ra	.	2d#\	-ra	2g/	-ra
=44	=44	=44	=44	=44	=44	=44	=44	=44	=44	=44	=44
2.C/	mun-	-ple-	2.C/	mun-	1cn	mun-	.	1e	mun-	1g	mun-
4BB/	.	.	4BB/	.	.	.	.	.	.	.	.
2AA/	-di	-t(ur)	2AA/	-di	2c\	-di	.	2e\	-di	2a\	-di
=45	=45	=45	=45	=45	=45	=45	=45	=45	=45	=45	=45
1BB	lu-	gau-	1BB	lu-	1B	lu-	.	1e	lu-	1f#X	lu-
2BB/	-mi-	-di-	2BB/	-mi-	2B\	-mi-	.	2d#X\	-mi-	2f#/	-mi-
=46	=46	=46	=46	=46	=46	=46	=46	=46	=46	=46	=46
1.El;	-na.	-o.	1.El;	-na.	1.Bl;	-na.	.	1.el;	-na.	1.g#Xl;	-na.
=47||	=47||	=47||	=47||	=47||	=47||	=47||	=47||	=47||	=47||	=47||	=47||
*M3/2	*	*	*M3/2	*	*M3/2	*	*	*M3/2	*	*M3/2	*
1.ryy	.	.	2E\	De-	2G/	De-	.	2e\	De-	2b\	De-
.	.	.	2D#X/	-vo-	2F#X/	-vo-	.	2f#X\	-vo-	2b\	-vo-
.	.	.	2D#/	-ta	2F#/	-ta	.	2f#\	-ta	2b\	-ta
=48	=48	=48	=48	=48	=48	=48	=48	=48	=48	=48	=48
1.ryy	.	.	(4E\	San-	1G	San-	.	(2.e\	San-	2b\	San-
.	.	.	4D\	.	.	.	.	.	.	.	.
.	.	.	4Cn/	.	.	.	.	.	.	1ccn	-cto-
.	.	.	4BB/)	.	.	.	.	4d\	.	.	.
.	.	.	2AA/	.	2A/	-cto-	.	4cn\)	.	.	.
.	.	.	.	.	.	.	.	4d\	.	.	.
!	!	!	!	!	!	!	!	!LO:LB:g=original	!	!	!
=49	=49	=49	=49	=49	=49	=49	=49	=49	=49	=49	=49
1.ryy	.	.	2C/	-cto-	2G/	-ru(m)	.	2e\	cto-	2g,</	-rum
.	.	.	2AA/	-rum	2A/	Fi-	.	2.e\	-rum	2cc\	Fi-
.	.	.	2BB/	Fi-	2F#/	.	.	.	.	2b\	.
.	.	.	.	.	.	.	.	4d#X\	Fi-	.	.
=50	=50	=50	=50	=50	=50	=50	=50	=50	=50	=50	=50
!	!	!	!	!	!LO:TX:a:t=P:problem=# above	!	!	!	!	!	!
1.ryy	.	.	1.E	-des.	1.G#X	-des	.	1.e,<	-des:	1.b,<	-des:
!	!	!	!	!	!LO:LB:g=original	!	!	!	!	!	!
=51	=51	=51	=51	=51	=51	=51	=51	=51	=51	=51	=51
1.ryy	.	.	2E\	in-	2Gn/	in-	.	(4e\	in-	2b\	In-
.	.	.	.	.	.	.	.	4f#\)	.	.	.
.	.	.	2E\	-vi-	2G/	-vic-	.	(4gn\	-vi-	2b\	-vi-
.	.	.	.	.	.	.	.	4f#\)	.	.	.
.	.	.	2E\	-cta	2G/	-ta	.	4e\	.	2b\	-cta
.	.	.	.	.	.	.	.	4d\	.	.	.
=52	=52	=52	=52	=52	=52	=52	=52	=52	=52	=52	=52
1.ryy	.	.	4F#\	Spes	4F#X/	Spes	.	(2.c#X/	-cta	1a#X	Spes
.	.	.	4E\	.	8G/L	.	.	.	.	.	.
.	.	.	.	.	8A/J	.	.	.	.	.	.
.	.	.	4D\	.	4B\	.	.	.	.	.	.
!	!	!	!LO:SIC:v:s=4C#\	!	!	!	!	!	!	!	!
.	.	.	4C\	.	4c\	.	.	8d\L	.	.	.
.	.	.	.	.	.	.	.	8e\J)	.	.	.
.	.	.	2BB/	.	2d\	.	.	2f#\	Spes	[<2b\	cre-
!	!	!	!LO:LB:g=original	!	!	!	!	!	!	!	!
=53	=53	=53	=53	=53	=53	=53	=53	=53	=53	=53	=53
1.ryy	.	.	(2G\	Cre-	2d\	Cre-	.	2g\	Cre-	2b\]	.
.	.	.	2E\)	.	2.c#X\	-den-	.	2g\	-den-	2b\	-den-
.	.	.	4F#\	den-	.	.	.	2f#\	-ti-	2a#X\	-ti-
.	.	.	4F#\	-ti-	4c#\	-ti-	.	.	.	.	.
=54	=54	=54	=54	=54	=54	=54	=54	=54	=54	=54	=54
1.ryy	.	.	1.BB	-um	1.d#X,<	-um	.	1.f#,<	-um:	1.b,<	-um
!	!	!	!	!	!	!	!	!	!	!LO:LB:g=original	!
=55	=55	=55	=55	=55	=55	=55	=55	=55	=55	=55	=55
1.ryy	.	.	2G\	per-	2dn\	per-	.	2gn\	per-	2b\	per-
.	.	.	2F#\	-fe-	2d\	-fe-	.	2a\	-fe-	2an\	-fec-
.	.	.	2F#\	-cta	(4d\	-cta	.	2a\	-cta	2a\	-ta
.	.	.	.	.	4c\)	.	.	.	.	.	.
=56	=56	=56	=56	=56	=56	=56	=56	=56	=56	=56	=56
1.ryy	.	.	(4G\	Chri-	(2.B\	Chri-	.	2.g\	Chri-	(4b\	Chri-
.	.	.	4F#\	.	.	.	.	.	.	4a\	.
.	.	.	4E\	.	.	.	.	.	.	4g\	.
.	.	.	4D\)	.	8c\L	.	.	(4f#\	.	8a\L	.
.	.	.	.	.	8d\J)	.	.	.	.	8b\J)	.
.	.	.	2Cn/	.	2e\	.	.	4e\	.	2ccn\	.
.	.	.	.	.	.	.	.	4f#\)	.	.	.
=57	=57	=57	=57	=57	=57	=57	=57	=57	=57	=57	=57
1.ryy	.	.	2BB/	-sti	2d\	-sti	.	2g,<\	-sti	2dd\	-sti
.	.	.	2C/	Ca-	2e\	Ca-	.	2.g\	Cha-	2ccn\	Cha-
.	.	.	4D/	.	2d\	-ri-	.	.	.	2a\	-ri-
.	.	.	4D/	-ri-	.	.	.	4f#\	-ri-	.	.
=58	=58	=58	=58	=58	=58	=58	=58	=58	=58	=58	=58
*	*	*	*	*	*	*	*	*custos:g	*	*	*
1.ryy	.	.	1.GG	-tas;	1.d,<	-tas,	.	1.g	-tas	1.b,<	-tas
!	!	!	!	!	!	!	!	!LO:LB:g=original	!	!	!
=59	=59	=59	=59	=59	=59	=59	=59	=59	=59	=59	=59
1.ryy	.	.	2E\	mun-	2e\	mun-	.	2g\	Mun-	2b\	Mun-
.	.	.	2D#X/	-di	2B\	-di	.	2f#X\	.	2b\	-di
.	.	.	2D#/	Ty-	2B\	Ty-	.	2f#\	-di	2b\	Ty-
=60	=60	=60	=60	=60	=60	=60	=60	=60	=60	=60	=60
1.ryy	.	.	(<4E\	-ran-	1G	-ran-	.	2.e\	Ty-	1b	-ran-
.	.	.	4D\	.	.	.	.	.	.	.	.
.	.	.	4C/	.	.	.	.	.	.	.	.
.	.	.	4BB/	.	.	.	.	4d\	.	.	.
*	*	*	*	*	*custos:G	*	*	*	*	*	*
.	.	.	2AA/)	-num	2A/	-num	.	(4cn/	-ran-	[<2ccn\	-num
.	.	.	.	.	.	.	.	4d/)	.	.	.
!	!	!	!	!	!LO:LB:g=original	!	!	!	!	!	!
=61	=61	=61	=61	=61	=61	=61	=61	=61	=61	=61	=61
1.ryy	.	.	2C/	con-	(2G/	con-	.	2e,<\	-num	2cc\]	.
.	.	.	2AA/	.	2A/)	.	.	2.e\	Con-	2cc\	con-
.	.	.	2BB/	-te-	2F#/	-te-	.	.	.	2b\	-fe-
.	.	.	.	.	.	.	.	4d#X\	-te-	.	.
=62	=62	=62	=62	=62	=62	=62	=62	=62	=62	=62	=62
1.ryy	.	.	1.El;	-rit.	1.G#Xl;	-rit.	.	1.el;	-rit.	1.bl;	-rit.
!	!	!	!LO:LB:g=original	!	!	!	!	!	!	!	!
=63||	=63||	=63||	=63||	=63||	=63||	=63||	=63||	=63||	=63||	=63||	=63||
*M3/2	*	*	*M3/2	*	*M3/2	*	*	*M3/2	*	*M3/2	*
1.ryy	.	.	2G\	In	2B\	In	.	2g\	In	2dd\	In
.	.	.	2A\	his	2A\	his	.	2g\	his	2ccn\	his
.	.	.	2A\	Pa-	2A\	Pa-	.	2f#\	Pa-	2cc\	Pa-
=64	=64	=64	=64	=64	=64	=64	=64	=64	=64	=64	=64
1.ryy	.	.	(4B\	-ter-	(2.d\	-ter-	.	1f#	-ter-	(2.b\	-ter-
.	.	.	4A\	.	.	.	.	.	.	.	.
.	.	.	4G\	.	.	.	.	.	.	.	.
.	.	.	4F#\	.	4A\	.	.	.	.	4cc\)	.
.	.	.	4E\	.	2B\)	.	.	[<2g\	-na	2dd\	na
.	.	.	4D\)	.	.	.	.	.	.	.	.
=65	=65	=65	=65	=65	=65	=65	=65	=65	=65	=65	=65
1.ryy	.	.	2Cn/	-na	2A,</	-na	.	2g\]	.	2ee\	.
.	.	.	2.D\	glo-	2.A/	glo-	.	2.g\	glo-	2.dd\	Glo-
.	.	.	4D\	-ri-	4A/	-ri-	.	4f#\	-ri-	4dd\	-ri-
=66	=66	=66	=66	=66	=66	=66	=66	=66	=66	=66-	=66
1.ryy	.	.	1.GG	-a,	1.B	-a	.	1.g,<	-a	1.dd	-a
!	!	!	!	!	!	!	!	!	!	!LO:LB:g=original	!
=67	=67	=67	=67	=67	=67	=67	=67	=67	=67	=67	=67
1.ryy	.	.	2D\	in	2A/	In	.	2f#\	in	2dd\	in
.	.	.	2E\	his	2Gn/	his	.	2e\	his	2dd\	his
.	.	.	2E\	tri-	2G/	tri-	.	2e\	tri-	2cc#X\	tri-
=68	=68	=68	=68	=68	=68	=68	=68	=68	=68	=68	=68
1.ryy	.	.	(4F#X\	-um-	1.A	-um-	.	(2.a\	-um-	1cc#X	-um-
.	.	.	4E\	.	.	.	.	.	.	.	.
.	.	.	4D\	.	.	.	.	.	.	.	.
!	!	!	!LO:SIC:v:s=4C#\	!	!	!	!	!	!	!	!
.	.	.	4C\	.	.	.	.	4e\)	.	.	.
.	.	.	4BB/	.	.	.	.	2f#,<\	-phat	[<2dd\	-phat
.	.	.	4AA/)	.	.	.	.	.	.	.	.
=69	=69	=69	=69	=69	=69	=69	=69	=69	=69	=69	=69
1.ryy	.	.	2GG/	-phat	2B\	-phat	.	1e	Fi-	2dd\]	.
.	.	.	2.AA/	Fi-	2.A\	Fi-	.	.	.	2.dd\	Fi-
.	.	.	.	.	.	.	.	2e\	-li-	.	.
.	.	.	4AA/	-li-	4A\	-li-	.	.	.	4cc#X\	-li-
=70	=70	=70	=70	=70	=70	=70	=70	=70-	=70	=70	=70
*	*	*	*	*	*custos:d	*	*	*custos:f#	*	*	*
1.ryy	.	.	1.D	-us	1.A	-us,	.	1.f#,<	-(us)	1.dd	-us:
!	!	!	!	!	!LO:PB:g=original	!	!	!LO:PB:g=original	!	!	!
=71||	=71||	=71||	=71||	=71||	=71||	=71||	=71||	=71||	=71||	=71||	=71||
!	!	!	!LO:TX:a:t=9	!	!	!	!LO:DY:a:t=For.	!	!	!	!
1.ryy	.	.	00.r	.	2d\	In	f	2f#\	In	2a\	In
.	.	.	.	.	2G/	his	.	2d\	his	2b\	his
.	.	.	.	.	2d\	Vo-	.	2f#\	vo-	2dd\	vo-
=72	=72	=72	=72	=72	=72	=72	=72	=72	=72	=72	=72
1.ryy	.	.	.	.	(4e\	-lun-	.	1g	-lun-	2b\	-lun-
.	.	.	.	.	4d\	.	.	.	.	.	.
.	.	.	.	.	4cn\	.	.	.	.	[<1ccn	.
.	.	.	.	.	4B\	.	.	.	.	.	.
.	.	.	.	.	4A/	.	.	[<2a\	.	.	.
.	.	.	.	.	4G/)	.	.	.	.	.	.
=73	=73	=73	=73	=73	=73	=73	=73	=73	=73	=73	=73
1.ryy	.	.	.	.	1F#X	-tas	.	1a]	.	1cc]	.
.	.	.	.	.	2G/	.	.	[<2g\	-tas	2b\	-tas
=74	=74	=74	=74	=74	=74	=74	=74	=74	=74	=74	=74
1.ryy	.	.	.	.	2cn\	Spi-	.	2g\]	.	1a	Spi-
.	.	.	.	.	2d\	.	.	2g\	Spi-	.	.
.	.	.	.	.	2D/	-ri-	.	2f#X\	-ri-	2a\	-ri-
=75	=75	=75	=75	=75	=75	=75	=75	=75	=75	=75-	=75
1.ryy	.	.	00.r	.	1.G,<	-tus	.	1.g	-tus,	1.b,<	-tus,
=76	=76	=76	=76	=76	=76	=76	=76	=76	=76	=76	=76
1.ryy	.	.	.	.	2B\	Cae-	.	2d\	ca-	2g/	Cae-
.	.	.	.	.	2cn\	-lum	.	2e\	-lum	2g/	-lum
.	.	.	.	.	2c\	re-	.	2e\	re-	2g/	re-
=77	=77	=77	=77	=77	=77	=77	=77	=77	=77	=77	=77
!	!	!	!	!	!	!	!	!	!	!LO:TX:a:t=P:problem=# above	!
1.ryy	.	.	.	.	1A	-ple-	.	1e	-ple-	1f#X	-ple-
.	.	.	.	.	4B\	-tur	.	2d#X\	-t(ur)	2f#/	-t(ur)
.	.	.	.	.	4A\	.	.	.	.	.	.
=78	=78	=78	=78	=78	=78	=78	=78	=78	=78	=78	=78
1.ryy	.	.	.	.	(<4G/	gau-	.	1e	gau-	2g/	gau-
.	.	.	.	.	4A/	.	.	.	.	.	.
.	.	.	.	.	2.B\)	.	.	.	.	2.f#/	.
.	.	.	.	.	.	.	.	2d#X\	-di-	.	.
.	.	.	.	.	4BB/	-di-	.	.	.	4f#/	-di-
=79	=79	=79	=79	=79	=79	=79	=79	=79	=79	=79-	=79
*	*	*	*custos:G	*	*	*	*	*	*	*	*
!	!	!	!LO:TX:b:t=Vertat	!	!	!	!	!	!	!	!
1.ryy	.	.	1.r	.	1.E	-o.	.	1.e	-o.	1.g#X,<	-o.
!	!	!	!LO:PB:g=original	!	!LO:LB:g=original	!	!	!LO:LB:g=original	!	!LO:PB:g=original	!
=80||	=80||	=80||	=80||	=80||	=80||	=80||	=80||	=80||	=80||	=80||	=80||
1.ryy	.	.	2G\	In	2G/	In	.	2d\	In	2b\	In
.	.	.	2C/	his	2G/	his	.	2e\	his	2g/	his
.	.	.	2G\	Vo-	2G/	Vo-	.	2d\	vo-	2b\	vo-
=81	=81	=81	=81	=81	=81	=81	=81	=81	=81	=81	=81
1.ryy	.	.	(4A\	-lun-	(<2E/	-lun-	.	2cn/	-lun-	2a\	-lun-
.	.	.	4G\	.	.	.	.	.	.	.	.
.	.	.	4Fn\	.	1A)	.	.	[<1fn	.	1ccn	.
.	.	.	4E\	.	.	.	.	.	.	.	.
.	.	.	4D\	.	.	.	.	.	.	.	.
.	.	.	4C/)	.	.	.	.	.	.	.	.
=82	=82	=82	=82	=82	=82	=82	=82	=82	=82	=82	=82
1.ryy	.	.	1BBn	.	1G	.	.	1f]	.	1dd	.
.	.	.	2C/	-tas	2G,</	-tas	.	2e\	-tas	[<2ccn\	-tas
=83	=83	=83	=83	=83	=83	=83	=83	=83	=83	=83	=83
1.ryy	.	.	2Fn\	Spi-	2A/	Spi-	.	1d	Spi-	2cc\]	.
.	.	.	2G\	.	2G/	.	.	.	.	2cc\	Spi-
.	.	.	2GG/	-ri-	2G/	-ri-	.	2d\	-ri-	2b\	-ri-
=84	=84	=84	=84	=84	=84	=84	=84	=84	=84	=84	=84
1.ryy	.	.	1.C,<	-tûs	1.G	-tûs,	.	1.e	-tus.	1.cc,<	-tus
=85	=85	=85	=85	=85	=85	=85	=85	=85	=85	=85	=85
1.ryy	.	.	2E\	Cae-	2G/	Cae-	.	2g\	Cae-	2cc\	Ca-
.	.	.	2Fn\	-lum	2A/	-lum	.	2fn\	-lum	2cc\	-lum
.	.	.	2F\	re-	2A/	re-	.	2f\	re-	2cc\	re-
=86	=86	=86	=86	=86	=86	=86	=86	=86	=86	=86	=86
1.ryy	.	.	1D	-ple-	1A	-ple-	.	1fn	-ple-	1b	-ple-
.	.	.	(4E\	-t(ur)	2G/	-tur	.	[<2e\	-t(ur)	2b\	-t(ur)
.	.	.	4D\)	.	.	.	.	.	.	.	.
=87	=87	=87	=87	=87	=87	=87	=87	=87	=87	=87	=87
1.ryy	.	.	4C/	gau-	2cn\	gau-	.	4e\]	.	1a	gau-
!	!	!	!	!	!	!	!	!LO:SIC:v:s=4fn\	!	!	!
.	.	.	4D/	.	.	.	.	4f#\	.	.	.
.	.	.	2.E\	.	2.B\	.	.	2.e\	gau-	.	.
.	.	.	.	.	.	.	.	.	.	2g#X/	-di-
.	.	.	4E\	-di-	4B\	-di-	.	4e\	-di-	.	.
=88	=88	=88	=88	=88	=88	=88	=88	=88	=88	=88	=88
*	*	*	*	*	*custos:F#	*	*	*custos:d#	*	*	*
1.ryy	.	.	1.AA	-o.	1.A	-o.	.	1.e	-o.	1.a	-o.
!	!	!	!LO:LB:g=original	!	!LO:LB:g=original	!	!	!LO:LB:g=original	!	!LO:LB:g=original	!
=89	=89	=89	=89	=89	=89	=89	=89	=89	=89	=89	=89
1.ryy	.	.	2BB/	Cae-	2F#/	Cae-	.	2d#X\	Cae-	2gn/	Cae-
.	.	.	2BB/	-lum	2F#/	-lum	.	2d#\	-lum	2g/	-lum
.	.	.	2BB/	re-	2F#/	re-	.	2d#\	re-	2g/	re-
=90	=90	=90	=90	=90	=90	=90	=90	=90	=90	=90	=90
1.ryy	.	.	2.C/	-ple-	1cn	-ple-	.	1e	-ple-	1g	-ple-
.	.	.	4BB/	.	.	.	.	.	.	.	.
.	.	.	2AA/	-tur	2c\	-t(ur)	.	2e\	-t(ur)	2a\	-t(ur)
=91	=91	=91	=91	=91	=91	=91	=91	=91	=91	=91	=91
1.ryy	.	.	1BB	gau-	1B	gau-	.	1e	gau-	1f#X	gau-
.	.	.	2BB/	-di-	2B\	-di-	.	2d#X\	-di-	2f#/	-di-
=92	=92	=92	=92	=92	=92	=92	=92	=92	=92	=92	=92
1.ryy	.	.	1.El;	-ô.	1.Bl;	-o.	.	1.el;	-o.	1.g#Xl;	-o.
=93||	=93||	=93||	=93||	=93||	=93||	=93||	=93||	=93||	=93||	=93||	=93||
*M3/2	*	*	*M3/2	*	*M3/2	*	*	*M3/2	*	*M3/2	*
2E\	Pa-	.	2E\	Pa-	2G/	Pa-	.	2e\	Pa-	2b\	Pa-
2D#X/	-tri	.	2.D#X/	-tri	2F#X/	-tri	.	2f#X\	-tri	2b\	-tri
2D#/	si-	.	.	.	2F#/	si-	.	2f#\	si-	2b\	si-
.	.	.	4D#/	si-	.	.	.	.	.	.	.
=94	=94	=94	=94	=94	=94	=94	=94	=94	=94	=94	=94
4E/	-mul-	.	4E\	-mul-	1G	-mul-	.	2.e\	-mul-	2b\	-mul-
4D/	.	.	4D\	.	.	.	.	.	.	.	.
4Cn/	.	.	4Cn/	.	.	.	.	.	.	1ccn,<	-que
4BB/	.	.	4BB/	.	.	.	.	(4d\	.	.	.
2AA/	.	.	2AA/	.	2A/	-que	.	4cn\	.	.	.
.	.	.	.	.	.	.	.	4d\)	.	.	.
=95	=95	=95	=95	=95	=95	=95	=95	=95	=95	=95	=95
2C/	-q(ue)	.	2C/	-que	2G/	Fi-	.	2e,<\	-que	2g/	Fi-
2AA/	Fi-	.	2AA/	Fi-	2A/	.	.	2.e\	Fi-	2cc\	.
4BB/	.	.	4BB/	.	2F#/	-li-	.	.	.	2b\	-li-
4BB/	-li-	.	4BB/	-li-	.	.	.	4d#X\	-li-	.	.
=96	=96	=96	=96	=96	=96	=96	=96	=96	=96	=96	=96
*	*	*	*	*	*custos:Gn	*	*	*	*	*	*
1.E	-o	.	1.E	-o.	1.G#X	-o.	.	1.e,<	-o	1.b,<	-o
!LO:LB:g=original	!	!	!LO:LB:g=original	!	!LO:LB:g=original	!	!	!LO:LB:g=original	!	!LO:LB:g=original	!
=97	=97	=97	=97	=97	=97	=97	=97	=97	=97	=97	=97
2E\	Ti-	.	2E\	Ti-	2Gn/	Ti-	.	4e\	Ti-	2b\	Ti-
.	.	.	.	.	.	.	.	4f#\	.	.	.
2E\	-bi-	.	2E\	-bi-	2G/	-bi-	.	4gn\	-bi-	2b\	-bi-
.	.	.	.	.	.	.	.	4f#\	.	.	.
2E\	-que	.	2E\	-que	2G/	-que	.	4e\	-que	2b\	-que
.	.	.	.	.	.	.	.	4d\	.	.	.
=98	=98	=98	=98	=98	=98	=98	=98	=98	=98	=98	=98
!LO:TX:a:t=P:problem=# above	!	!	!	!	!	!	!	!	!	!	!
4F#X\	San-	.	(4F#\	San-	4F#X/	San-	.	(2.c#X\	San-	1a#X	San-
4E\	.	.	4E\	.	8G/L	.	.	.	.	.	.
.	.	.	.	.	8A/J	.	.	.	.	.	.
4D/	.	.	4D\	.	4B\	.	.	.	.	.	.
!LO:SIC:v:s=4C#/	!	!	!LO:SIC:v:s=4C#\)	!	!	!	!	!	!	!	!
4C/	.	.	4C\)	.	4c\	.	.	8d\L	.	.	.
.	.	.	.	.	.	.	.	8e\J)	.	.	.
2BB/	-cte	.	2BB/	.	2d\	.	.	2f#\	.	[<2b\	cte
=99	=99	=99	=99	=99	=99	=99	=99	=99	=99	=99	=99
(2G\	Spi-	.	2G\	-cte	2d\	-cte	.	2g,<\	-cte	2b\]	.
2E\)	.	.	2E\	Spi-	2.c#X\	Spi-	.	2g\	Spi-	2.b\	Spi-
2F#\	-ri-	.	2F#\	-ri-	.	.	.	2f#\	-ri-	.	.
.	.	.	.	.	4c#\	-ri-	.	.	.	4a#X\	-ri-
=100	=100	=100	=100	=100	=100	=100	=100	=100	=100	=100	=100
!LO:TX:t=P:problem=brak kreski początek repetycji	!	!	!	!	!	!	!	!	!	!	!
1.BB	-tus	.	1.BB,<	-tus	1.d#X	-tus	.	1.f#,<	-tus	1.b,<	-tus,
=101!|:	=101!|:	=101!|:	=101!|:	=101!|:	=101!|:	=101!|:	=101!|:	=101!|:	=101!|:	=101!|:	=101!|:
*>B	*>B	*	*>B	*>B	*>B	*>B	*>B	*>B	*>B	*>B	*>B
2G\	Si-	.	2G\	Si-	2dn\	Si-	.	2g\	Si-	2b\	Si-
2F#\	-cut	.	2F#X\	-cut	2d\	-cut	.	2a\	-cut	2an\	-cut
2F#\	fu-	.	2F#\	fu-	2d\	fu-	.	2a\	fu-	2a\	fu-
=102	=102	=102	=102	=102	=102	=102	=102	=102	=102	=102	=102
(4G\	-it	.	(4G\	-it	(2.B\	-it	.	2.g\	-it	(4b\	-it
4F#\	.	.	4F#\	.	.	.	.	.	.	4a\	.
4E\	.	.	4E\	.	.	.	.	.	.	4g\	.
4D\)	.	.	4D\)	.	8c\L	.	.	(4f#\	.	8a\L	.
.	.	.	.	.	8d\J)	.	.	.	.	8b\J)	.
2Cn/	sit	.	2Cn/	sit	2e\	sit	.	4e\	.	2ccn\	sit
.	.	.	.	.	.	.	.	4f#\)	.	.	.
=103	=103	=103	=103	=103	=103	=103	=103	=103	=103	=103	=103
2BB/	ju-	.	2BB/	ju-	2d\	ju-	.	2g\	sit	2dd\	ju-
2C/	.	.	2C/	.	2e\	.	.	2.g\	ju-	2cc\	.
4D\	.	.	4D/	.	2d\	-gi-	.	.	.	2a\	-gi-
4D\	-gi-	.	4D/	-gi-	.	.	.	4f#\	-gi-	.	.
=104	=104	=104	=104	=104	=104	=104	=104	=104	=104	=104	=104
1.GG,<	-ter	.	1.GG	-ter	1.d	-ter	.	1.g,<	-ter	1.b	-ter
!	!	!	!LO:LB:g=original	!	!LO:LB:g=original	!	!	!LO:LB:g=original	!	!LO:LB:g=original	!
=105	=105	=105	=105	=105	=105	=105	=105	=105	=105	=105	=105
2E\	sae-	.	2E\	Sae-	2e\	Sae-	.	2g\	Sae-	2b\	Sae-
2D#X\	clu(m)	.	2D#X/	clum	2B\	-clum	.	2f#X\	-ĉlum	2b\	-clum
2D#\	per	.	2D#/	per	2B\	per	.	2f#\	per	2b\	per
=106	=106	=106	=106	=106	=106	=106	=106	=106	=106	=106	=106
4E\	o-	.	4E\	o-	1G	om-	.	(2.e\	O-	1b	om-
4D\	.	.	4D\	.	.	.	.	.	.	.	.
4C/	.	.	4C/	.	.	.	.	.	.	.	.
4BB/	.	.	4BB/	.	.	.	.	4d\	.	.	.
2AA/	-mne	.	2AA/	-mne	2A/	-ne	.	4cn\	.	[<2ccn\	-ne
.	.	.	.	.	.	.	.	4d\)	.	.	.
=107	=107	=107	=107	=107	=107	=107	=107	=107	=107	=107	=107
2C/	glo-	.	2Cn/	glo-	2G/	glo-	.	2e,<\	-mne	2cc\]	.
2AA/	.	.	2AA/	.	2A/	.	.	2.e\	glo-	2cc\	glo-
2BB/	-ri-	.	4BB/	.	2F#/	-ri-	.	.	.	2b\	-ri-
.	.	.	4BB/	-ri-	.	.	.	4d#X\	ri-	.	.
=108	=108	=108	=108	=108	=108	=108	=108	=108	=108	=108	=108
!LO:TX:t=P:problem=brak kreski zakończenie repetycji	!	!	!	!	!	!	!	!	!	!	!
1.E,<	-a	.	1.E	-a.	1.G#Xl;	-a.	.	1.e,<	-a	1.b	-a.
=109:|!	=109:|!	=109:|!	=109:|!	=109:|!	=109:|!	=109:|!	=109:|!	=109:|!	=109:|!	=109:|!	=109:|!
*>C	*>C	*	*>C	*>C	*>C	*>C	*>C	*>C	*>C	*>C	*>C
0.AA	A-	.	0.AA	A-	0.cn	A-	.	0.e	A-	0.a	A-
=110-	=110	=110-	=110-	=110	=110-	=110	=110	=110-	=110	=110-	=110
.	.	.	.	.	.	-men.	.	.	.	.	.
=111-	=111	=111-	=111-	=111	=111-	=111	=111	=111-	=111	=111-	=111
!	!	!	!LO:TX:b:i:t=O[btulit]. ad M[aiorem] D[ei]. G(loria)m	!	!LO:TX:b:i:t=O[btulit] ad M[aiorem] D[ei]. G(loria)m	!	!	!LO:TX:b:i:t=O[btulit] ad M[aiorem] D[ei]. G(loria)m	!	!LO:TX:b:i:t=O[btulit]. ad M[aiorem] D[ei]. G(loria)m.	!
1.El;	-men	.	1.El;	-men.	1.Bl;	.	.	1.el;	-men	1.g#Xl;	-men
==	==	==	==	==	==	==	==	==	==	==	==
*-	*-	*-	*-	*-	*-	*-	*-	*-	*-	*-	*-
!!!system-decoration: [(s1,s2,s3,s4)]s5
!!!RDF**kern: > = above
!!!RDF**kern: < = below
!!!RDF**kern: l = terminal long
!!!ENC: Andrzej Kubiczek
!!!END: 2021-08-07
!!!ENC: Krzysztof Stępień
!!!END: 2021-07-12
